X:1
T:Forth Eorlingas
C:Howard Shore
Z:Merecraft of Laurelin
Q:1/4=72
M:4/4
L:1/8
K:F
A/A/d Ad A/A/d e2 |e/e f3 A/A/d d/A/ z/ |dA/A/ de3/2 e/e/f/ a2-|ab/a/ g3 f/g3/2 f |g a3 g a3 |cB/c/ dd3/2 d/ f2 f |ga _d3 z z z |z D/D/ DF E2 F2 |G2 DB, D, C,2 D, |D,D/D/ DF E2 A2 |B2 G2 z2 z2 |B4 B3 F/F/ |
G8 |D4 C3 C/C/ |D3 z2 z2 G/A/ |B3 A/G/ F3 G/A/ |G4 F2 E2 |D4 C3 C/C/ |D6 z G/A/ |B3 A/B/ c3 B/c/ |d8 |]
%End of file
